!!!COM: Scarlatti, Domenico
!!!CDT: 1685-1757
!!!OTL: Sonata in D major, L.12, K.478
!!!SCT: K. 478
!!!SCT: L. 12
!!!OMD: Andante cantabile ([quarter]=92)
**kern	**kern	**dynam
*staff2	*staff1	*staff1/2
*Icemba	*Icemba	*
*I"L.12 (K.478)	*I"L.12 (K.478)	*
*>[A,A,B,B]	*>[A,A,B,B]	*>[A,A,B,B]
*>norep[A,B]	*>norep[A,B]	*>norep[A,B]
*>A	*>A	*>A
*clefF4	*clefG2	*
*k[f#c#]	*k[f#c#]	*
*M3/4	*M3/4	*
*MM92	*MM92	*
=1-	=1-	=1-
(<4d 4f#	(8.aaL	mf
.	16bbJk	.
4e 4g)	4dd	.
(<4e 4g	4cc#	.
=2	=2	=2
2f#)	16ddLL)	.
.	(16a	.
.	16b	.
.	16cc#JJ	.
.	16ddLL	.
.	16ee	.
.	16ff#	.
.	16ggJJ	.
*	*^	*
(<4F# 4d	[4aa)	8aaL	.
.	.	(8aJ	.
=3	=3	=3	=3
4G	8aa]	4b)	.
.	(4gg	.	.
4A	.	(4dd	.
.	4ff#	.	.
4AA	.	4cc#	.
.	8ee	.	.
*	*v	*v	*
=4	=4	=4
(>4D)	16dd 16ff#LL))	.
.	(16a	p
.	16b	.
.	16cc#JJ	.
4E	16ddLL	.
.	16ee	.
.	16ff#	.
.	16ggJJ	.
*	*^	*
4F# 4d	(4aa)	(8aaL	.
.	.	8aJ	.
!!LO:LB:g=z
=5	=5	=5	=5
4G	8aa)	4b')	.
.	(4gg	.	.
4A	.	(4dd	.
.	4ff#	.	.
4AA)	.	4cc#)	.
.	8ee)	.	.
*	*v	*v	*
=6	=6	=6
*^	*	*
2d	(4D	(8ff#L	mf
.	.	8gg	.
.	4E	8cc#	.
.	.	8dd	.
4d	4F#	8a	.
.	.	8bJ	.
=7	=7	=7	=7
(2d	4G	8e	.
.	.	4f#	.
.	4A)	.	.
.	.	8g	.
.	.	(16aqq	.
4c#)	4A	8gL)	.
.	.	16f#L	.
.	.	16eJJ)	.
=8	=8	=8	=8
2d	(4D	(8ff#L	mf
.	.	8gg	.
.	4E	8cc#	.
.	.	8dd	.
4d	4F#	8a	.
.	.	8bJ	.
=9	=9	=9	=9
2d	4G	8eL	.
.	.	8f#	.
.	4A	8g	.
.	.	8f#	.
4r	4B)	8e	.
.	.	8dJ	.
*v	*v	*	*
!!LO:LB:g=z
=10	=10	=10
(16c#LL	[2.a)	f
16d	.	.
16A	.	.
16BJJ	.	.
16F#LL	.	.
16G	.	.
16C#	.	.
16DJJ	.	.
16AALL	.	.
16BB	.	.
16FF#	.	.
16GGJJ	.	.
=11	=11	=11
*ped	*	*
4CC#)	8aL]	.
.	(8ee	p
4CC#	8cc#	.
.	8a	.
4CC#	8e	.
.	8c#J	.
=12	=12	=12
*Xped	*	*
(16c#LL	[2.a)	f
16d	.	.
16A	.	.
16BJJ	.	.
16F#LL	.	.
16G	.	.
16C#	.	.
16DJJ	.	.
16AALL	.	.
16BB	.	.
16FF#	.	.
16GGJJ	.	.
=13	=13	=13
*ped	*	*
4CC#)	8aL>]	.
.	(8ee	p
4CC#	8cc#	.
.	8aJ	.
*Xped	*	*
(4c#	8eL	.
.	16f#L	.
.	32eL	.
.	32f#JJJ	.
!!LO:LB:g=z
=14	=14	=14
4B)	8gL)	.
.	(8dd	.
(4BB	8b	.
.	8gJ	.
4B	8dL	.
.	16eL	.
.	32dL	.
.	32eJJJ	.
=15	=15	=15
4A)	8f#L)	.
.	(8cc#	.
(4AA	8a	.
.	8f#J	.
4A	8c#L	.
.	16dL	.
.	32c#L	.
.	32dJJJ	.
=16	=16	=16
4G)	8eL)	.
.	(8b	.
(4GG	8g	.
.	8eJ	.
4G	8BL	.
.	16c#L	.
.	32BL	.
.	32c#JJJ	.
=17	=17	=17
8F#L)	2d)	.
(8A	.	.
8F#	.	.
8D	.	.
8AA	[4a	.
!!!Xfilter: shed -Y dynam -e 's/\)//Y'
8BBJ	.	.
=18	=18	=18
8C#L)	4a]	<
(8E	.	.
8A	(8g#^>	.
8c#	[4.a)	.
8E	.	.
8C#J	.	.
!!LO:LB:g=z
=19	=19	=19
8DL)	4a]	.
(8F#	.	.
8A	(8g#^>	.
8d	[4.a)	.
8A	.	.
8DJ	.	.
=20	=20	=20
8C#L)	4a]	.
(8E	.	.
8A	(8g#^>	.
8c#	[4.a)	.
8A	.	.
8C#J	.	.
=21	=21	=21
8DL)	2a_	.
(8c#	.	.
8d)	.	.
(8D	.	.
8C#	8aL]	.
8c#J	(>[8a#J	.
=22	=22	=22
8BBL)	8a#]	.
(8A#	4b	.
8B)	.	.
(8BB	4cc#	.
8AAn	.	.
8AnJ	[8dd	.
=23	=23	=23
8GG#L<)	8dd]	mf
(8F#	4dd#	<
8G#)	.	.
(8GG#	4ee	.
8FF#	.	.
8F#J	[8ff#	.
=24	=24	=24
8EEL)	8ff#]	.
(8D#	4gg#	.
8E)	.	.
(8EE	4aa	.
8DDn	.	.
8DnJ	[8bb	.
!!LO:LB:g=z
=25	=25	=25
8CC#L)	8bb]	.
(8BB	4ccc#	.
8C#)	.	.
(8CC#	4ddd	.
8BBB)	.	.
8BB'J	16ccc#LL	.
.	16bbJJ	.
=26	=26	=26
(4AAA	16ccc#LL	f
.	16bb	.
.	16aa	.
.	16gg#JJ	.
4BBB	16aaLL	.
.	16gg#	.
.	16ff#	.
.	16eeJJ	.
4CC#	16aaLL	.
.	16gg#	.
.	16ff#	.
.	16eeJJ	.
=27	=27	=27
4DD	16ff#LL	.
.	16ee	.
.	16dd	.
.	16cc#JJ	.
4EE	16ddLL	.
.	16cc#	.
.	16b	.
.	16aJJ	.
4FF#	16ddLL	.
.	16cc#	.
.	16b	.
.	16aJJ)	.
=28	=28	=28
2EE)	(16dd#^LL	.
.	16ee	.
.	16b	.
.	16g#JJ	.
.	16eLL	.
.	16B	.
.	16G#	.
.	16EJJ)	.
4EE	4r	.
=29	=29	=29
2.r	2.r	.
!!LO:LB:g=z
=30	=30	=30
(4A' 4cn'	8r	p
.	(8eL	.
4A' 4c'	8fn	.
.	8e	.
4A' 4c'	8a	.
.	8g#J	.
=31	=31	=31
.	(16eeqq	.
4B' 4d')	4.dd)	mf >
4B (4d	.	.
.	16ccnLL	] p
.	16bJJ	.
4cn 4e)	4a)	.
=32	=32	=32
(4A' 4cn'	8r	.
.	(8eL	.
4A' 4c'	8fn	.
.	8e	.
4A' 4c'	8a	.
.	8g#J	.
=33	=33	=33
.	(16eeqq	.
4B' 4d')	4.dd)	mf >
4B (4d	.	.
.	16ccnLL	] p
.	16bJJ	.
4c#X 4e)	4a)	.
*clefG2	*	*
=34	=34	=34
(4d' 4fn'	8r	.
.	(8aL	.
4d' 4f'	8b-	.
.	8a	.
4d' 4f'	8dd	.
.	8cc#XJ	.
=35	=35	=35
.	(16aaqq	.
4e' 4g')	4.gg)	mf >
(4e 4g	.	.
.	16ffnLL	] p
.	16eeJJ	.
4fn) 4a	4dd)	.
!!LO:LB:g=z
=36	=36	=36
(4d' 4fn'	8r	.
.	(8aL	.
4d' 4f'	8b-	.
.	8a	.
4d' 4f'	8dd	.
.	8cc#J	.
=37	=37	=37
.	(16aaqq	.
4e' 4g')	4.gg)	mf >
(4e 4g	.	.
.	16ffnLL	] p
.	16eeJJ	.
4fn) 4a	4dd)	.
=38	=38	=38
*	*^	*
4fn 4a	8rccc	8r	.
.	(4ddd	2dd	<
4f 4a	.	.	.
.	16cccnLL	.	.
.	16bbJ	.	.
4f 4a	8aa	.	.
.	8dddJ)	8r	.
=39	=39	=39	=39
4e 4a	8rccc	8r	.
.	(4cccn	2ccn	.
4e 4a	.	.	.
.	16bbLL	.	.
.	16aaJ	.	.
4e 4a	8gg#	.	.
.	8aaJ)	8r	.
=40	=40	=40	=40
4d 4g#	8rccc	8r	.
.	(4bb	2b	.
4d 4g#	.	.	.
.	16aaLL	.	.
.	16gg#J	.	.
4d 4g#	8ff#	.	.
.	8gg#J)	8r	.
!!LO:LB:g=z
=41	=41	=41	=41
4cn 4e	8rccc	8r	.
.	([<8aa	2a	.
4c 4e	16aaLL]	.	.
.	16ggn	.	.
.	16ffn	.	.
.	16eeJJ	.	.
4c 4e	16aaLL	.	.
.	16gg	.	.
.	16ff	8rg	.
.	16eeJJ	.	.
*	*v	*v	*
*clefF4	*	*
=42	=42	=42
4D 4d	16ffnLL	mf
.	16gg	.
.	16aa	.
.	16ggJJ	.
4D 4d	16ffLL	.
.	16ee	.
.	16dd	.
.	16ccnJJ	.
4D 4d	16bLL	.
.	16a	.
.	16g#	.
.	16f#XJJ	.
=43	=43	=43
2.EE	16eLL)	.
.	(16ee	.
.	16dd	.
.	16cc#XJJ	.
.	16bLL	.
.	16a	.
.	16g#	.
.	16f#JJ	.
.	16eLL	.
.	16d	.
.	16c#	.
.	16BJJ)	.
=44	=44	=44
(16d#LL	2.r	.
16e	.	.
16B	.	.
16c#JJ	.	.
16G#LL	.	.
16A	.	.
16D#	.	.
16EJJ	.	.
16BBLL	.	.
16C#	.	.
16GG#	.	.
16AAJJ	.	.
!!LO:LB:g=z
=45	=45	=45
4EE)	8r	.
.	(8eeL	p
(4E	8g#	<
.	8a	.
4EE	8b	.
.	8cc#J)	.
=46	=46	=46
4DD)	8r	.
.	(8ff#L	.
(4D	8b	.
.	8cc#	.
4DD	8dd)	.
.	([8gg#J	.
=47	=47	=47
2CC#)	8gg#XL]	mf
.	8aa	.
.	8cc#	.
.	8dd	.
(<4C#	8ee	.
.	8ff#J)	.
=48	=48	=48
.	(16eeqq	.
4D	(8ddL)	.
.	16cc#L	.
.	16bJJ	.
4E	4a)	.
.	(16g#qq	.
4EE)	(4g#yt)	.
.	32qqf#LLL	.
.	32qqg#JJJ	.
=49	=49	=49
(4AA 4A	8aL)	mf
.	(8gg#	.
4BB 4B	8aa	.
.	8cc#	.
4C# 4c#	8dd	.
.	[8eeJ	.
=50	=50	=50
4D 4d)	8eeL]	.
.	8ee#	.
4D 4d	8ff#)	.
.	(8b	.
(<4G# 4g#	8cc#	.
.	[8ddJ	.
!!LO:LB:g=z
=51	=51	=51
4C# 4c#)	8ddL]	.
.	8dd#	.
4C# 4c#	8een)	.
.	(8a	.
(<4F# 4f#	8b	.
.	[<8cc#J	.
=52	=52	=52
4D 4d	8cc#] 8eeL	.
.	8b 8ddnJ)	.
4E 4e)	8b (8ddL	.
.	8a 8cc#J)	.
4E 4e	8a (8cc#L<	.
.	8g# 8bJ	.
=53	=53	=53
(4AAA 4AA	8aL)	.
.	(>8g#	.
4BBB 4BB	8a	.
.	8c#	.
4CC# 4C#	8d	.
.	[8eJ	.
=54	=54	=54
4DD 4D)	8eL]	>
.	8e#	.
4DD 4D	8f#)	.
.	(>8B	] p
(4GG# 4G#	8c#	.
.	[8dJ	.
=55	=55	=55
4CC# 4C#)	8dL]	.
.	8d#	.
4CC# 4C#	8e)	.
.	(>8A	.
(>4FF# 4F#	8B	.
.	[8c#J	.
=56	=56	=56
4DD 4D	8c#] 8eL	.
.	8B 8dnJ)	.
4EE 4E)	(8B 8dL	.
.	8A) 8c#J	.
4EE 4E	(8A 8c#L	.
.	8G#) 8BJ	.
!!LO:LB:g=z
=57	=57	=57
4AA (4A	8r	.
.	([8ccc#	mf
4BB 4B	16ccc#LL]	.
.	16aa	.
.	16ee	.
.	16aaJJ)	.
4C# 4c#	4r	.
=58	=58	=58
4D 4d	(8cc# 8eeL	p
.	8b 8ddJ)	.
4E 4e)	(8b 8ddL	.
.	8a 8cc#J)	.
4E 4e	(8a 8cc#L<	.
.	8g# 8bJ)	.
=59	=59	=59
(4AAA 4AA	8r	mf
.	([8ccc#	.
4BBB 4BB	16ccc#LL]	.
.	16aa	.
.	16ee	.
.	16aaJJ)	.
4CC# 4C#	4r	.
=60	=60	=60
4DD 4D	(8c# 8eL	p
.	8B 8dJ)	.
4EE) 4E	(8B 8dL	.
.	8A 8c#J)	.
4EE 4E	(8A 8c#L	.
.	8G# 8BJ)	.
=61	=61	=61
2.AAA 2.AA	2.A	.
!!LO:LB:g=z
=62:|!|:	=62:|!|:	=62:|!|:
*>B	*>B	*>B
.	(16gg#qq	.
(16g#LL	[2.aa)	f
16a	.	.
16e	.	.
16f#JJ	.	.
16c#LL	.	.
16d	.	.
16G#	.	.
16AJJ	.	.
16ELL	.	.
16F#	.	.
16C#	.	.
16DJJ	.	.
=63	=63	=63
2AA)	8aaL]	.
.	8aa'J	mf
*	*^	*
.	4raa	(8aL	.
.	.	8b	.
(4F#	([4aa	8cc#	.
.	.	8dd#J	.
=64	=64	=64	=64
4Gn	8aa]	8eeL	.
.	4gg)	8b	.
4A	.	8ccn)	.
.	4ryy	(8ff# 8aa	.
4B)	.	8ee 8gg	.
.	8ryy	8dd# 8ff#J)	.
*	*v	*v	*
=65	=65	=65
.	(16dd#qq/ 16qqff#/	.
(16d#LL	[2.ee) [2.gg	f
16e	.	.
16B	.	.
16cnJJ	.	.
16GLL	.	.
16A	.	.
16D#	.	.
16EJJ	.	.
16BBLL	.	.
16Cn	.	.
16GG	.	.
16AAJJ	.	.
!!LO:LB:g=z
=66	=66	=66
2EE)	8ee] 8ggL]	.
.	8gg'J	mf
*	*^	*
.	4raa	(8gL	.
.	.	8a	.
(4E	([4gg	8b	.
.	.	8cc#XJ	.
*	*v	*v	*
=67	=67	=67
4F#	8dd 8ggL]	.
.	8a 8ff#))	.
4G	(8b 8aa	.
.	8ee 8gg	.
4A)	8dd 8ff#	.
.	8cc# 8eeJ)	.
=68	=68	=68
.	(<16cc#qq/ 16qqee/	.
(16c#LL	[2.dd) [2.ff#	f
16d	.	.
16A	.	.
16BJJ	.	.
16F#LL	.	.
16G	.	.
16C#	.	.
16DJJ	.	.
16AALL	.	.
16BB	.	.
16FF#	.	.
16GGJJ	.	.
=69	=69	=69
*	*^	*
(4DD)	8ff#L]	4dd]	.
.	(8ff#J	.	.
4FF#	8aaL	4a	.
.	16ggL	.	.
.	16ff#JJ	.	.
4GG	8eeL	4b	.
.	8ddJ)	.	.
*	*v	*v	*
!!LO:LB:g=z
=70	=70	=70
2.AA)	N(>16gg#LL	.
.	16aa	.
.	16ee	.
.	16ff#JJ	.
.	16cc#LL	.
.	16dd	.
.	16g#	.
.	16aJJ	.
.	16eLL	.
.	16f#	.
.	16c#	.
.	16dJJ	.
=71	=71	=71
16G#LL	2.r	.
16A	.	.
16E	.	.
16F#JJ	.	.
16C#LL	.	.
16D	.	.
16GG#	.	.
16AAJJ	.	.
4AAAN)	.	.
=72	=72	=72
2.r	2.r	.
*clefG2	*	*
=73	=73	=73
(4d' 4fn'	8r	.
.	(8aL	p
4d' 4f'	8b-	.
.	8a	.
4d' 4f'	8dd	.
.	8cc#J	.
!!LO:LB:g=z
=74	=74	=74
.	(16aaqq	.
4e' 4g')	4.gg)	mf <
(4e 4g	.	.
.	16ffnLL	[ p
.	16eeJJ	.
4fn) 4a	4dd)	.
=75	=75	=75
(4d' 4fn'	8r	.
.	(8aL	.
4d' 4f'	8b-	.
.	8a	.
4d' 4f'	8dd	.
.	8cc#J	.
=76	=76	=76
.	(16aaqq	.
4e' 4g')	4.gg)	mf <
(4e 4g	.	.
.	16ffnLL	[ p
.	16eeJJ	.
4f#X) 4a	4dd)	.
=77	=77	=77
(<4g' 4b-'	8r	.
.	(8ddL	.
4g' 4b-'	8ee-	.
.	8dd	.
4g' 4b-'	8gg	.
.	8ff#J	.
=78	=78	=78
.	(16dddqq	.
4a'/ 4ccn'/)	4.cccn)	mf <
4a (4cc	.	.
.	16bb-LL	[ p
.	16aaJJ	.
4b- 4dd)	4gg)	.
!!LO:LB:g=z
=79	=79	=79
(<4g' 4b-'	8r	.
.	(8ddL	.
4g' 4b-'	8ee-	.
.	8dd	.
4g' 4b-'	8gg	.
.	8ff#J	.
=80	=80	=80
.	(16dddqq	.
4a'/ 4ccn'/)	4.cccn)	mf >
4a (4cc	.	.
.	16bb-LL	] p
.	16aaJJ	.
4b- 4dd)	4gg)	.
=81	=81	=81
*	*^	*
4b- 4dd	8reee	8r	.
.	(4ggg	2gg	<
4b- 4dd	.	.	.
.	16fffnLL	.	.
.	16eeeJ	.	.
4b- 4dd	8ddd	.	.
.	8eeeJ)	8r	.
=82	=82	=82	=82
4a 4dd	8reee	8r	.
.	(4fffn	2ffn	.
4a 4dd	.	.	.
.	16eeeLL	.	.
.	16dddJ	.	.
4a 4dd	8ccc#	.	.
.	8dddJ)	8r	.
=83	=83	=83	=83
4g 4cc#	8reee	8r	.
.	(4eee	2ee	.
4g 4cc#	.	.	.
.	16dddLL	.	.
.	16ccc#J	.	.
4g 4cc#	8bb	.	.
.	8ccc#J)	8r	.
!!LO:LB:g=z
=84	=84	=84	=84
4fn 4a	8reee	8r	.
.	[8ddd	2dd	.
4f 4a	(16dddLL]	.	.
.	16cccn	.	.
.	16bb-	.	.
.	16aaJJ	.	.
4f 4a	16dddLL	.	.
.	16ccc	.	.
.	16bb-	8r	.
.	16aaJJ	.	.
*	*v	*v	*
=85	=85	=85
4g 4b-	16bb-LL	mf
.	16cccn	.
.	16ddd	.
.	16cccJJ	.
4g 4b-	16bb-LL	.
.	16aa	.
.	16gg	.
.	16ffnJJ	.
*clefF4	*	*
(4G	16eeLL	.
.	16dd	.
.	16cc#X	.
.	16ddJJ	.
=86	=86	=86
2AA)	N(>16gg#LL)	f
.	16aa	.
.	16ee	.
.	16ff#XJJ	.
.	16cc#LL	.
.	16dd	.
.	16g#	.
.	16aJJ	.
4r	16eLL	.
.	16f#	.
.	16c#	.
.	16dJJ	.
!!LO:LB:g=z
=87	=87	=87
16G#LL	2.r	.
16A	.	.
16E	.	.
16F#JJ	.	.
16C#LL	.	.
16D	.	.
16GG#	.	.
16AAJJ	.	.
4AAAN)	.	.
=88	=88	=88
2.r	2.r	.
=89	=89	=89
4FFn	8r	.
.	(8fnL	p <
4FF	8gM	.
.	8f	.
4FF	8b-	.
.	8aJ	.
=90	=90	=90
*	*^	*
4FFn	8dd'<)	4rc	[
.	(4ee	.	f
4FF	.	(4g	.
.	16ffnLL	.	.
.	16ddJJ	.	.
*	*v	*v	*
4FF	8a) 8ccnL)	.
.	(8g 8b-J	>
=91	=91	=91
4FFn	8fn 8aL	.
.	8e 8g	.
4FF	8d 8f	.
.	8cn 8e	.
(4FF	8Bn 8d	.
.	8A 8cJ	.
!!LO:LB:g=z
=92	=92	=92
4GG)	8G) 8B	p
.	(8gL	.
4GG	8aM	<
.	8g	.
4GG	8ccn	.
.	8bJ	.
=93	=93	=93
*	*^	*
4GG	8ee'<)	4rc	[
.	(4ff#X	.	f
4GG	.	(4a	.
.	16ggLL	.	.
.	16eeJJ	.	.
*	*v	*v	*
4GG	8b'>) 8dd'>L>)	.
.	(8a 8ccnJ	>
=94	=94	=94
4GG	8g 8bL	.
.	8f# 8a	.
4GG	8e 8g	.
.	8d 8f#	.
(4GG	8c# 8e	.
.	8B 8dJ	.
=95	=95	=95
4AA)	8A) 8c#	p
.	(8aL>	<
4AA	8bM	.
.	8a	.
4AA	8dd	.
.	8cc#J	.
=96	=96	=96
*	*^	*
4AA	8ff#'<)	4re	[
.	(4gg#	.	.
4AA	.	(4b	f <
.	16aaLL	.	.
.	16ff#JJ	.	.
4AA	8eeL	8.cc#L)	.
.	16aaL	.	.
.	16ff#JJ	(16ddJk	[[
*	*v	*v	*
!!LO:LB:g=z
=97	=97	=97
*	*^	*
4AA	8eeL	8.cc#L	.
.	16aaL	.	.
.	16ff#JJ	16ddJk	.
4AA	8eeL	8.cc#L	.
.	16aaL	.	.
.	16ff#JJ	16ddJk	.
(4AA	8eeL	8.cc#L	.
.	16aaL	.	.
.	16ff#JJ	16ddJk	.
=98	=98	=98	=98
*ped	*	*	*
4AAA)	16eeLL)	8cc#)	.
.	N(<16aa	.	.
.	16ee	8ryy	.
.	16cc#JJ	.	.
4r	16aLL	2ryy	.
.	16e	.	.
.	16c#	.	.
.	16AJJ	.	.
16ELL	4r	.	.
16C#	.	.	.
16AA	.	.	.
16EEJJ	.	.	.
*	*v	*v	*
=99	=99	=99
*Xped	*	*
4AAAN)	8r	.
.	(8aaL	p
4A	8cc#	<
.	8dd	.
4A	8ee	.
.	8ff#J)	.
=100	=100	=100
4G 4e	8r	.
.	(8bbL	.
4G 4e	8ee	.
.	8ff#	.
4G 4e	8gg)	.
.	([8ccc#J	.
!!LO:LB:g=z
=101	=101	=101
4F# 4d	8ccc#L]	mf
.	8ddd	.
4F# 4d	8ff#	.
.	8gg	.
4B 4d	8aa	.
.	8bbJ)	.
=102	=102	=102
.	(16aaqq	.
4G 4g	(8ggL)	.
.	16ff#L	.
.	16eeJJ	.
4A 4f#	4dd)	.
.	(16cc#qq	.
4G 4e	(4cc#t)	.
.	32qqbLLL	.
.	32qqcc#JJJ	.
=103	=103	=103
(<4D 4d	8ddL)	mf
.	(8ccc#	.
4E 4e	8ddd	.
.	8ff#	.
4F# 4f#	8gg	.
.	[8aaJ	.
*clefG2	*	*
=104	=104	=104
4G 4g)	8aaL]	.
.	8aa#	.
4G 4g	8bb)	.
.	(8ee	.
(4c# 4cc#	8ff#	.
.	[8ggJ	.
=105	=105	=105
4F# 4f#)	8ggL]	.
.	8gg#	.
4F# 4f#	8aan)	.
.	(8dd	.
(4B 4b	8ee	.
.	[<8ff#J	.
!!LO:LB:g=z
=106	=106	=106
4G 4g	8ff#] 8aaL	.
.	8ee 8ggJ)	.
4A 4a)	8ee (8ggL	.
.	8dd 8ff#J)	.
4A 4a	8dd (8ff#L	.
.	8cc# 8eeJ)	.
*clefF4	*	*
=107	=107	=107
.	(8eeq	.
(4DD 4D	(8ddL<)	.
.	8cc#	.
4EE 4E	8dd)	.
.	(8f#	.
4FF# 4F#	8g	.
.	[<8aJ	.
=108	=108	=108
4GG 4G)	8aL]	>
.	8a#	.
4GG 4G	8b)	.
.	(>8e	] p
(<4C# 4c#	8f#	.
.	[8gJ	.
=109	=109	=109
4FF# 4F#)	8gL]	.
.	8g#	.
4FF# 4F#	8an)	.
.	(>8d	.
(4BB 4B	8e	.
.	[8f#J	.
=110	=110	=110
4GG 4G	8f#] 8aL	.
.	8e 8gJ)	.
4AA 4A)	(8e 8gL	.
.	8d) 8f#J	.
4AA 4A	(8d 8f#L	.
.	8c# 8eJ	.
!!LO:LB:g=z
=111	=111	=111
(4DD 4D	8d) 8f#	.
.	([8ff#	mf
4EE 4E	16ff#LL]	.
.	16dd	.
.	16a	.
.	16aaJJ)	.
4FF# 4F#	4r	.
=112	=112	=112
4GG) 4G	(8f# 8aL	p
.	8e 8g)	.
4AA 4A	(8e 8g	.
.	8d 8f#)	.
4AA 4A	(8d 8f#	.
.	8c# 8eJ)	.
=113	=113	=113
(4DD 4D	8r	.
.	([8ff#	mf
4EE 4E	16ff#LL]	.
.	16dd	.
.	16a	.
.	16aaJJ)	.
4FF# 4F#	4r	.
*	*clefF4	*clefF4
=114	=114	=114
4GG	(8F# 8AL	p
.	8E 8G)	.
4AA	(8E 8G	.
!	!LO:TX:b:i:t=rall.	!
.	8D 8F#)	.
4AAA	(8D 8F#	.
.	8C# 8EJ)	.
=115	=115	=115
2.DD)	2.D	.
==:|!	==:|!	==:|!
*-	*-	*-
!!!RDF**kern: > = above
!!!RDF**kern: < = below
!!!RDF**kern: N = linked
!!!PTL: Domenico Scarlatti: Opere complete per clavicembalo
!!!PED: Longo, Alessandro
!!!PPR: Ricordi
!!!PPP: Milan
!!!PDT: 1906-1913
!!!ENC: Kelly Leistikow and Craig Stuart Sapp
!!!END: 2005/06/30
!!!EED: Craig Stuart Sapp
!!!EEV: 2020/12/19
